SVG_Azure_Grouped/Compute/Virtual Network Gateway BGP Peer.svg

<?xml version="1.0" encoding="UTF-8" standalone="no"?>
<!-- Generated by Microsoft Visio, SVG Export Virtual Network Gateway BGP Peer.svg Page-1 -->

<svg
   xmlns:dc="http://purl.org/dc/elements/1.1/"
   xmlns:cc="http://creativecommons.org/ns#"
   xmlns:rdf="http://www.w3.org/1999/02/22-rdf-syntax-ns#"
   xmlns:svg="http://www.w3.org/2000/svg"
   xmlns="http://www.w3.org/2000/svg"
   xmlns:xlink="http://www.w3.org/1999/xlink"
   xmlns:sodipodi="http://sodipodi.sourceforge.net/DTD/sodipodi-0.dtd"
   xmlns:inkscape="http://www.inkscape.org/namespaces/inkscape"
   width="0.80538678in"
   height="0.80552322in"
   viewBox="0 0 57.987958 57.997818"
   xml:space="preserve"
   class="st4"
   version="1.1"
   id="svg65"
   sodipodi:docname="Virtual Network Gateway BGP Peer.svg"
   style="font-size:12px;overflow:visible;color-interpolation-filters:sRGB;fill:none;fill-rule:evenodd;stroke-linecap:square;stroke-miterlimit:3"
   inkscape:version="0.92.5 (2060ec1f9f, 2020-04-08)"><metadata
   id="metadata69"><rdf:RDF><cc:Work
       rdf:about=""><dc:format>image/svg+xml</dc:format><dc:type
         rdf:resource="http://purl.org/dc/dcmitype/StillImage" /></cc:Work></rdf:RDF></metadata><sodipodi:namedview
   pagecolor="#ffffff"
   bordercolor="#666666"
   borderopacity="1"
   objecttolerance="10"
   gridtolerance="10"
   guidetolerance="10"
   inkscape:pageopacity="0"
   inkscape:pageshadow="2"
   inkscape:window-width="640"
   inkscape:window-height="480"
   id="namedview67"
   showgrid="false"
   inkscape:zoom="1.4046094"
   inkscape:cx="38.653884"
   inkscape:cy="38.64968"
   inkscape:window-x="0"
   inkscape:window-y="0"
   inkscape:window-maximized="0"
   inkscape:current-layer="svg65" />
	<style
   type="text/css"
   id="style2">
	<![CDATA[
		.st1 {fill:#cccccc;stroke:none;stroke-linecap:butt;stroke-width:34}
		.st2 {fill:#ffffff;stroke:none;stroke-linecap:butt;stroke-width:34}
		.st3 {fill:url(#grad0-10);stroke:none;stroke-linecap:butt;stroke-width:34}
		.st4 {fill:none;fill-rule:evenodd;font-size:12px;overflow:visible;stroke-linecap:square;stroke-miterlimit:3}
	]]>
	</style>

	<defs
   id="Patterns_And_Gradients">
		<linearGradient
   id="grad0-10"
   x1="0"
   y1="0"
   x2="1"
   y2="0"
   gradientTransform="rotate(-90,0.5,0.5)">
			<stop
   offset="0"
   stop-color="#773adc"
   stop-opacity="1"
   id="stop4" />
			<stop
   offset="1"
   stop-color="#a67af4"
   stop-opacity="1"
   id="stop6" />
		</linearGradient>
	<linearGradient
   inkscape:collect="always"
   xlink:href="#grad0-10"
   id="linearGradient4579"
   gradientTransform="scale(0.99624232,1.0037719)"
   x1="-1.8612521"
   y1="112.83451"
   x2="10.840738"
   y2="112.83451"
   gradientUnits="userSpaceOnUse" /><linearGradient
   inkscape:collect="always"
   xlink:href="#grad0-10"
   id="linearGradient4581"
   gradientTransform="scale(0.99624232,1.0037719)"
   x1="-1.8612521"
   y1="112.83451"
   x2="10.840738"
   y2="112.83451"
   gradientUnits="userSpaceOnUse" /><linearGradient
   inkscape:collect="always"
   xlink:href="#grad0-10"
   id="linearGradient4583"
   gradientTransform="scale(0.99624235,1.0037718)"
   x1="-1.8612365"
   y1="112.83451"
   x2="10.840753"
   y2="112.83451"
   gradientUnits="userSpaceOnUse" /><linearGradient
   inkscape:collect="always"
   xlink:href="#grad0-10"
   id="linearGradient4585"
   gradientTransform="scale(0.99624235,1.0037718)"
   x1="-1.8612365"
   y1="112.83451"
   x2="10.840753"
   y2="112.83451"
   gradientUnits="userSpaceOnUse" /></defs>
	<g
   id="g63"
   transform="translate(-34.003542,-33.996504)">
		<title
   id="title10">Page-1</title>
		<g
   id="group10842-1"
   transform="translate(35.2951,-34.0157)">
			<title
   id="title12">Virtual Network Gateway BGP Peer.10842</title>
			<g
   id="group10843-2">
				<title
   id="title14">Sheet.10843</title>
				<g
   id="shape10844-3"
   transform="translate(2.71899,-4.10282)">
					<title
   id="title16">Sheet.10844</title>
					<path
   d="M 48.82,100.29 26.39,77.35 25.23,78.49 24.09,77.34 0,101.44 25.24,126.01 48.78,102.58 47.65,101.44 Z M 26.85,82.48 45.36,101.42 26.85,119.84 Z m -3.22,-0.07 v 37.48 l -19,-18.47 z"
   class="st1"
   id="path18"
   inkscape:connector-curvature="0"
   style="fill:#cccccc;stroke:none;stroke-width:34;stroke-linecap:butt" />
				</g>
				<g
   id="shape10845-5"
   transform="translate(22.9214,-46.5527)">
					<title
   id="title21">Sheet.10845</title>
					<ellipse
   cx="5.0320702"
   cy="120.943"
   rx="5.0320702"
   ry="5.0700998"
   class="st2"
   id="ellipse23"
   style="fill:#ffffff;stroke:none;stroke-width:34;stroke-linecap:butt" />
				</g>
				<g
   id="shape10846-7"
   transform="translate(23.4751,-45.2479)">
					<title
   id="title26">Sheet.10846</title>
					<path
   d="m 4.48,126.01 a 6.32713,6.37495 0 1 1 6.32,-6.37 6.33358,6.38144 0 0 1 -6.32,6.37 z m 0,-10.13 a 3.737,3.76525 -180 1 0 3.73,3.76 3.74022,3.76849 -180 0 0 -3.73,-3.76 z"
   class="st3"
   id="path28"
   inkscape:connector-curvature="0"
   style="fill:url(#linearGradient4579);stroke:none;stroke-width:34;stroke-linecap:butt" />
				</g>
				<g
   id="shape10847-11"
   transform="translate(22.9214,-1.30485)">
					<title
   id="title31">Sheet.10847</title>
					<ellipse
   cx="5.0320702"
   cy="120.943"
   rx="5.0320702"
   ry="5.0700998"
   class="st2"
   id="ellipse33"
   style="fill:#ffffff;stroke:none;stroke-width:34;stroke-linecap:butt" />
				</g>
				<g
   id="shape10848-13"
   transform="translate(23.4751)">
					<title
   id="title36">Sheet.10848</title>
					<path
   d="m 4.48,126.01 a 6.32713,6.37495 0 1 1 6.32,-6.37 6.33358,6.38144 0 0 1 -6.32,6.37 z m 0,-10.14 a 3.737,3.76525 -180 1 0 3.73,3.77 3.74022,3.76849 -180 0 0 -3.73,-3.77 z"
   class="st3"
   id="path38"
   inkscape:connector-curvature="0"
   style="fill:url(#linearGradient4581);stroke:none;stroke-width:34;stroke-linecap:butt" />
				</g>
				<g
   id="shape10849-16"
   transform="translate(45.3337,-23.6139)">
					<title
   id="title41">Sheet.10849</title>
					<ellipse
   cx="5.0320702"
   cy="120.943"
   rx="5.0320702"
   ry="5.0700998"
   class="st2"
   id="ellipse43"
   style="fill:#ffffff;stroke:none;stroke-width:34;stroke-linecap:butt" />
				</g>
				<g
   id="shape10850-18"
   transform="translate(45.8964,-22.3123)">
					<title
   id="title46">Sheet.10850</title>
					<path
   d="m 4.47,126.01 a 6.32713,6.37495 0 1 1 6.33,-6.36 6.33358,6.38144 0 0 1 -6.33,6.36 z m 0,-10.13 a 3.737,3.76525 -180 1 0 3.75,3.77 3.74022,3.76849 -180 0 0 -3.75,-3.77 z"
   class="st3"
   id="path48"
   inkscape:connector-curvature="0"
   style="fill:url(#linearGradient4583);stroke:none;stroke-width:34;stroke-linecap:butt" />
				</g>
				<g
   id="shape10851-21"
   transform="translate(0,-23.6139)">
					<title
   id="title51">Sheet.10851</title>
					<ellipse
   cx="5.0320702"
   cy="120.943"
   rx="5.0320702"
   ry="5.0700998"
   class="st2"
   id="ellipse53"
   style="fill:#ffffff;stroke:none;stroke-width:34;stroke-linecap:butt" />
				</g>
				<g
   id="shape10852-23"
   transform="translate(0.562685,-22.3123)">
					<title
   id="title56">Sheet.10852</title>
					<path
   d="m 4.47,126.01 a 6.32713,6.37495 0 1 1 6.33,-6.36 6.33358,6.38144 0 0 1 -6.33,6.36 z m 0,-10.13 a 3.737,3.76525 -180 1 0 3.74,3.77 3.74022,3.76849 -180 0 0 -3.74,-3.77 z"
   class="st3"
   id="path58"
   inkscape:connector-curvature="0"
   style="fill:url(#linearGradient4585);stroke:none;stroke-width:34;stroke-linecap:butt" />
				</g>
			</g>
		</g>
	</g>
</svg>

<?xml version="1.0" encoding="UTF-8" standalone="no"?>
<!DOCTYPE svg PUBLIC "-//W3C//DTD SVG 1.1//EN" "http://www.w3.org/Graphics/SVG/1.1/DTD/svg11.dtd">
<!-- Generated by Microsoft Visio, SVG Export Virtual Network Gateway BGP Peer.svg Page-1 -->
<svg xmlns="http://www.w3.org/2000/svg" xmlns:xlink="http://www.w3.org/1999/xlink" xmlns:ev="http://www.w3.org/2001/xml-events"
		width="1.74983in" height="1.75019in" viewBox="0 0 125.988 126.014" xml:space="preserve" color-interpolation-filters="sRGB"
		class="st4">
	<style type="text/css">
	<![CDATA[
		.st1 {fill:#cccccc;stroke:none;stroke-linecap:butt;stroke-width:34}
		.st2 {fill:#ffffff;stroke:none;stroke-linecap:butt;stroke-width:34}
		.st3 {fill:url(#grad0-10);stroke:none;stroke-linecap:butt;stroke-width:34}
		.st4 {fill:none;fill-rule:evenodd;font-size:12px;overflow:visible;stroke-linecap:square;stroke-miterlimit:3}
	]]>
	</style>

	<defs id="Patterns_And_Gradients">
		<linearGradient id="grad0-10" x1="0" y1="0" x2="1" y2="0" gradientTransform="rotate(-90 0.5 0.5)">
			<stop offset="0" stop-color="#773adc" stop-opacity="1"/>
			<stop offset="1" stop-color="#a67af4" stop-opacity="1"/>
		</linearGradient>
	</defs>
	<g>
		<title>Page-1</title>
		<g id="group10604-1" transform="translate(35.2951,-34.0157)">
			<title>Virtual Network Gateway BGP Peer.10604</title>
			<g id="group10605-2">
				<title>Sheet.10605</title>
				<g id="shape10606-3" transform="translate(2.71899,-4.10282)">
					<title>Sheet.10606</title>
					<path d="M48.82 100.29 L26.39 77.35 L25.23 78.49 L24.09 77.34 L0 101.44 L25.24 126.01 L48.78 102.58 L47.65 101.44
								 L48.82 100.29 ZM26.85 82.48 L45.36 101.42 L26.85 119.84 L26.85 82.48 ZM23.63 82.41 L23.63 119.89
								 L4.63 101.42 L23.63 82.41 Z" class="st1"/>
				</g>
				<g id="shape10607-5" transform="translate(22.9214,-46.5527)">
					<title>Sheet.10607</title>
					<ellipse cx="5.03207" cy="120.943" rx="5.03207" ry="5.0701" class="st2"/>
				</g>
				<g id="shape10608-7" transform="translate(23.4751,-45.2479)">
					<title>Sheet.10608</title>
					<path d="M4.48 126.01 A6.32713 6.37495 0 1 1 10.8 119.64 A6.33358 6.38144 0 0 1 4.48 126.01 ZM4.48 115.88 A3.737
								 3.76525 -180 1 0 8.21 119.64 A3.74022 3.76849 -180 0 0 4.48 115.88 Z" class="st3"/>
				</g>
				<g id="shape10609-11" transform="translate(22.9214,-1.30485)">
					<title>Sheet.10609</title>
					<ellipse cx="5.03207" cy="120.943" rx="5.03207" ry="5.0701" class="st2"/>
				</g>
				<g id="shape10610-13" transform="translate(23.4751,1.42109E-14)">
					<title>Sheet.10610</title>
					<path d="M4.48 126.01 A6.32713 6.37495 0 1 1 10.8 119.64 A6.33358 6.38144 0 0 1 4.48 126.01 ZM4.48 115.87 A3.737
								 3.76525 -180 1 0 8.21 119.64 A3.74022 3.76849 -180 0 0 4.48 115.87 Z" class="st3"/>
				</g>
				<g id="shape10611-16" transform="translate(45.3337,-23.6139)">
					<title>Sheet.10611</title>
					<ellipse cx="5.03207" cy="120.943" rx="5.03207" ry="5.0701" class="st2"/>
				</g>
				<g id="shape10612-18" transform="translate(45.8964,-22.3123)">
					<title>Sheet.10612</title>
					<path d="M4.47 126.01 A6.32713 6.37495 0 1 1 10.8 119.65 A6.33358 6.38144 0 0 1 4.47 126.01 ZM4.47 115.88 A3.737
								 3.76525 -180 1 0 8.22 119.65 A3.74022 3.76849 -180 0 0 4.47 115.88 Z" class="st3"/>
				</g>
				<g id="shape10613-21" transform="translate(1.13909E-13,-23.6139)">
					<title>Sheet.10613</title>
					<ellipse cx="5.03207" cy="120.943" rx="5.03207" ry="5.0701" class="st2"/>
				</g>
				<g id="shape10614-23" transform="translate(0.562685,-22.3123)">
					<title>Sheet.10614</title>
					<path d="M4.47 126.01 A6.32713 6.37495 0 1 1 10.8 119.65 A6.33358 6.38144 0 0 1 4.47 126.01 ZM4.47 115.88 A3.737
								 3.76525 -180 1 0 8.21 119.65 A3.74022 3.76849 -180 0 0 4.47 115.88 Z" class="st3"/>
				</g>
			</g>
		</g>
	</g>
</svg>
